public/icons/git.svg

<svg width="128" height="128" viewBox="0 0 128 128" fill="none" xmlns="http://www.w3.org/2000/svg">
<path d="M124.742 58.378L69.6249 3.26398C66.4529 0.0899839 61.3049 0.0899839 58.1279 3.26398L46.6849 14.71L61.2029 29.228C64.5779 28.089 68.4459 28.853 71.1349 31.542C72.4164 32.8246 73.3111 34.442 73.7166 36.2092C74.1221 37.9764 74.0221 39.822 73.4279 41.535L87.4199 55.529C90.8049 54.362 94.7119 55.116 97.4139 57.824C101.194 61.601 101.194 67.724 97.4139 71.503C96.5157 72.4017 95.4491 73.1146 94.2752 73.601C93.1013 74.0874 91.8431 74.3378 90.5724 74.3378C89.3018 74.3378 88.0435 74.0874 86.8697 73.601C85.6958 73.1146 84.6292 72.4017 83.7309 71.503C82.3813 70.1525 81.4614 68.4331 81.0868 66.5609C80.7122 64.6888 80.8998 62.7477 81.6259 60.982L68.5779 47.933L68.5759 82.274C69.5226 82.7402 70.387 83.3576 71.1349 84.102C74.9139 87.879 74.9139 94 71.1349 97.785C67.3559 101.562 61.2309 101.562 57.4559 97.785C53.6779 94.001 53.3679 87.88 57.1449 84.102C58.0789 83.169 58.9999 82.464 59.9999 81.992V47.333C58.9999 46.861 58.0799 46.161 57.1439 45.222C54.2829 42.362 53.7479 38.162 55.2159 34.646L40.9829 20.333L3.22894 58.123C0.0539396 61.3 0.0739396 66.448 3.24894 69.623L58.3749 124.737C61.5479 127.911 66.6999 127.911 69.8779 124.737L124.738 69.879C127.913 66.703 127.916 61.552 124.742 58.378V58.378Z" fill="#F34F29"/>
</svg>

<svg xmlns="http://www.w3.org/2000/svg" fill="none" viewBox="0 0 128 128"><path fill="#F34F29" d="M124.742 58.378 69.625 3.264c-3.172-3.174-8.32-3.174-11.497 0L46.685 14.71l14.518 14.518c3.375-1.139 7.243-.375 9.932 2.314a9.66 9.66 0 0 1 2.293 9.993L87.42 55.529c3.385-1.167 7.292-.413 9.994 2.295 3.78 3.777 3.78 9.9 0 13.679a9.672 9.672 0 0 1-16.327-4.942 9.677 9.677 0 0 1 .539-5.579L68.578 47.933l-.002 34.341a9.706 9.706 0 0 1 2.559 1.828c3.779 3.777 3.779 9.898 0 13.683-3.78 3.777-9.904 3.777-13.68 0-3.777-3.784-4.087-9.905-.31-13.683.934-.933 1.855-1.638 2.855-2.11V47.333c-1-.472-1.92-1.172-2.856-2.111-2.861-2.86-3.396-7.06-1.928-10.576L40.983 20.333 3.229 58.123c-3.175 3.177-3.155 8.325.02 11.5l55.126 55.114c3.173 3.174 8.325 3.174 11.503 0l54.86-54.858c3.175-3.176 3.178-8.327.004-11.501Z"/></svg>
